material/.icons/material/table-column.svg

<svg xmlns="http://www.w3.org/2000/svg" viewBox="0 0 24 24"><path d="M8 2h8a2 2 0 012 2v16a2 2 0 01-2 2H8a2 2 0 01-2-2V4a2 2 0 012-2m0 8v4h8v-4H8m0 6v4h8v-4H8M8 4v4h8V4H8z"/></svg>

<?xml version="1.0" encoding="UTF-8"?><!DOCTYPE svg PUBLIC "-//W3C//DTD SVG 1.1//EN" "http://www.w3.org/Graphics/SVG/1.1/DTD/svg11.dtd"><svg xmlns="http://www.w3.org/2000/svg" xmlns:xlink="http://www.w3.org/1999/xlink" version="1.1" id="mdi-table-column" width="24" height="24" viewBox="0 0 24 24"><path d="M8,2H16A2,2 0 0,1 18,4V20A2,2 0 0,1 16,22H8A2,2 0 0,1 6,20V4A2,2 0 0,1 8,2M8,10V14H16V10H8M8,16V20H16V16H8M8,4V8H16V4H8Z" /></svg>
